!!!COM:	Pierre de la Rue
**kern	**kern
*part2	*part1
*staff2	*staff1
*clefGv2	*clefG2
*k[b-]	*k[b-]
*M2/1	*M2/1
=1-	=1-
0d	1r
.	1a
=2	=2
1d	4b-
.	4a
.	4b-
.	4cc
1d	1dd
=3	=3
4e	1cc
4d	.
4e	.
4f	.
1g	1b-
=4	=4
1f	2r
.	2a
1e	4b-
.	4a
.	4b-
.	4cc
=5	=5
2r	1dd
2d	.
4e	2cc
4d	.
4e	2a
4f	.
=6	=6
1g	2.b-
.	4g
2f	2a
2d	[2dd
=7	=7
1e	2dd]
.	2cc
1d	2dd
.	[2a
=8	=8
2r	2a]
2d	2b-
2e	2cc
[2f	[2a
=9	=9
4f]	2a]
4e	.
1d	4g
.	4f
.	1e
2c	.
=10	=10
0d	2r
.	2.d
.	4e
.	4f
.	4g
=11	=11
2r	2a
2.G	2.b-
4A	4a
4B-	[2dd
4c	.
=12	=12
2d	2dd]
2.e	1cc
4d	.
[2g	[2b-
=13	=13
2g]	4b-]
.	4a
1f	4g
.	4f
.	1g
2e	.
=14	=14
0f	1f
.	2r
.	[2f
=15	=15
2r	4f]
.	4e
2.d	4f
.	4d
.	2f
4c	.
4d	2d
4B-	.
=16	=16
2d	4f
.	4e
2A	4f
.	4d
4d	2f
4c	.
4d	2d
4B-	.
=17	=17
4d	4f
4e	4g
4f	4a
8eL	8gL
8fJ	8aJ
2g	2b-
[2d	[2a
=18	=18
4d]	2a]
4c	.
2B-	1g
1A	.
.	2f
=19	=19
0G	0g
==	==
*-	*-
